X: 36080
T: Scatter The Mud
R: jig
M: 6/8
K: Adorian
|:eAA BAA|eAA ABd|eAA BAB|dBG GBd|
eAA BAA|eAA AGE|GAB dge|dBA A3:|
eaa egg|dBA ABd|eaa egg|dBG GBd|
eaa g2e|dBA AGE|GAB dge|dBA A3|
eaa egg|dBA ABd|eaa egg|dBG GBd|
eaf g2e|dBA AGE|GAB dge|dBA A3||

